X:247
T:Swinging on a Gate (Simplified Version)
M:4/4
L:1/8
K:G
"G"g2d2 G2AB|"Am"c2B2 "D7"A2E2|"G"D2B2 g2g2|"Am"f2a2 "D7"f2e2|
"G"g2d2 G2AB|"Am"c2B2 "D7"A2E2|"C"c2B2 A2E2|"D7"DGGF "G"G2d2:|
|:"G"g2g2 bagf|"Em"g2e2 B2AG|"Am"E2A2 c2A2|"Am"E2A2 "D7"c2e2|
"G"g2g2 bagf |"Em" g2e2 e2B2|"C"c2B2 "(Am)"A2E2|"D7"DGGA "G"G4:|
